svg/charges/farming/sickle.svg

<?xml version="1.0" encoding="UTF-8" standalone="no"?>
<svg
   xmlns:dc="http://purl.org/dc/elements/1.1/"
   xmlns:cc="http://creativecommons.org/ns#"
   xmlns:rdf="http://www.w3.org/1999/02/22-rdf-syntax-ns#"
   xmlns:svg="http://www.w3.org/2000/svg"
   xmlns="http://www.w3.org/2000/svg"
   version="1.1"
   viewBox="94.5 63 175.5 337.5"
   width="175.5"
   height="337.5"
   id="svg9336">
  <defs
     id="defs9280">
    <clipPath
       id="artboard_clip_path">
      <path
         d="M 94.5 63 L 270 63 L 270 400.5 L 94.5 400.5 Z"
         id="path9277" />
    </clipPath>
  </defs>
  <metadata
     id="metadata9282"> Produced by OmniGraffle 7.7.1 
    <dc:date>2018-03-13 06:46:41 +0000</dc:date>
<dc:title>Traceable heraldic art http://heraldicart.org/credits.html</dc:title>
<rdf:RDF>
  <cc:Work
     rdf:about="">
    <dc:format>image/svg+xml</dc:format>
    <dc:type
       rdf:resource="http://purl.org/dc/dcmitype/StillImage" />
    <dc:title></dc:title>
  </cc:Work>
</rdf:RDF>
</metadata>
  <g
     id="Sickle"
     fill-opacity="1"
     stroke-dasharray="none"
     stroke="none"
     stroke-opacity="1"
     fill="#ffff00">
    <title
       id="title9284">Sickle</title>
    <g
       id="Sickle: Layer 2">
      <title
         id="title9286">Layer 2</title>
      <g
         id="Group_3">
        <g
           id="Graphic_18">
          <path
             d="m 140.39829,67.02258 c -24.58555,5.61402 -42.97632,15.293375 -41.04045,21.48816 0.38717,1.16152 8.905,1.93587 21.87533,2.12946 23.81121,0.19358 32.52263,2.12946 52.07492,11.80881 26.32783,13.16392 37.16871,26.52142 44.33143,54.20437 4.64608,17.81 4.06533,29.61882 -2.71022,46.2673 -14.32544,35.8136 -35.23284,51.10698 -70.2721,51.10698 h -16.06772 l -0.38718,12.00239 c -0.19358,6.77555 -0.77434,16.4549 -1.3551,21.87535 -0.38718,5.22684 -1.35511,29.8124 -2.12946,54.39795 l -1.16152,44.7186 4.4525,4.06535 c 5.42044,5.22683 14.13185,7.1627 31.74828,7.1627 10.06652,0 15.09978,-0.96794 19.1651,-3.48457 5.22686,-3.48456 5.42045,-4.06533 4.45251,-16.45489 -0.58076,-7.16274 -1.93587,-18.19719 -3.09739,-24.58554 -4.25892,-23.81122 -7.74348,-56.14026 -6.38837,-57.1082 0.77435,-0.58076 5.61402,-2.32304 10.84087,-3.48456 13.74468,-3.48457 34.07132,-16.06774 46.65448,-28.84447 11.42163,-11.80881 22.2625,-31.3611 29.8124,-54.20437 9.87294,-29.61882 0.96794,-83.04884 -17.22925,-103.18189 -2.32305,-2.71022 -5.61402,-6.96913 -7.3563,-9.48577 -1.74229,-2.32304 -6.19479,-6.58196 -9.87295,-9.09859 -3.87173,-2.51663 -10.06652,-6.77554 -13.93826,-9.29217 C 195.95777,67.60334 162.27362,62.1829 140.39829,67.02258 Z"
             fill="#cccccc"
             id="path9288" />
        </g>
        <g
           id="Graphic_17">
          <path
             d="m 192.6668,74.1853 c 23.6176,7.35631 48.39675,29.61882 59.23762,53.04285 5.22685,11.22805 11.42164,40.65328 11.42164,54.01078 0,3.67815 -1.35511,12.19598 -3.09739,18.97153 -10.06653,39.68534 -30.97393,66.20677 -63.49655,80.91938 -10.84088,4.83968 -14.71262,6.19479 -29.81241,9.09859 -10.06652,2.12947 -25.74707,0.96794 -30.39316,-2.12945 -4.4525,-2.90381 -4.83968,-4.45251 -4.83968,-16.64848 v -13.5511 l 8.51783,1.16152 c 15.87414,2.32304 45.88013,-8.32424 60.59275,-21.10099 12.58315,-11.03446 26.71501,-49.1711 24.58555,-66.40035 -2.9038,-24.58555 -12.77675,-47.62241 -24.77914,-58.2697 -19.55229,-17.22925 -54.01079,-28.84447 -80.7258,-27.29577 -14.71261,0.96793 -15.29337,0.77435 -12.00239,-2.32305 4.25891,-4.06532 23.23044,-11.42163 35.42643,-13.55109 12.0024,-2.32304 35.42642,-0.38717 49.3647,4.06533 z"
             fill="#ff0000"
             id="path9291" />
        </g>
        <g
           id="Graphic_16">
          <path
             d="m 146.98025,294.87452 c 3.67815,0.77435 9.48576,0.96794 12.58315,0.58078 4.6461,-0.77436 5.42044,-0.58078 3.0974,0.96792 -4.25892,3.09738 -18.77794,2.51663 -25.16632,-0.77435 -6.77554,-3.48457 -7.54989,-5.61402 -1.35511,-3.67817 2.32305,0.77436 7.16273,2.12947 10.84088,2.90382 z"
             fill="#ff0000"
             id="path9294" />
        </g>
        <g
           id="Graphic_15">
          <path
             d="m 143.88286,300.68213 c 4.06532,0.96794 10.26011,0.96794 14.71261,0 7.35631,-1.54869 7.5499,-1.54869 8.51783,4.45251 0.58076,3.87174 0,6.77554 -1.93587,8.32424 -4.83968,3.67815 -16.4549,4.64609 -25.74708,1.93587 -8.51783,-2.32305 -8.71141,-2.71022 -9.29217,-10.84088 -0.58076,-7.54989 -0.19359,-8.32424 2.9038,-6.96913 1.93587,0.77436 6.77555,2.12946 10.84088,3.09739 z"
             fill="#ff0000"
             id="path9297" />
        </g>
        <g
           id="Graphic_14">
          <path
             d="m 149.1097,319.84725 c 5.22686,0 11.61523,-0.77435 14.32545,-1.93587 2.71022,-0.96794 5.03326,-1.16152 5.03326,-0.19358 0,5.22684 -24.77914,7.93706 -33.87773,3.67815 -6.38838,-2.90381 -6.38838,-5.80761 0.19359,-3.48457 2.71021,1.16152 9.09859,1.93587 14.32543,1.93587 z"
             fill="#ff0000"
             id="path9300" />
        </g>
        <g
           id="Graphic_13">
          <path
             d="m 148.14177,326.6228 c 5.42043,0 12.38957,-0.77435 15.87413,-1.5487 l 6.0012,-1.5487 1.35512,15.0998 c 0.77434,8.32424 2.51663,20.32663 4.06532,26.715 3.67816,16.2613 3.67816,16.2613 -6.38837,20.7138 -10.84087,4.8397 -24.77914,3.87176 -33.49056,-2.32303 L 129.751,379.66564 V 351.59552 323.5254 l 4.4525,1.5487 c 2.32305,0.77435 8.71142,1.5487 13.93827,1.5487 z"
             fill="#ff0000"
             id="path9303" />
        </g>
        <g
           id="Graphic_12">
          <path
             d="m 154.72373,392.2488 c 6.77555,0 13.35751,-1.3551 17.42283,-3.48456 4.64609,-2.51664 6.19479,-2.71024 5.61403,-0.77434 -0.38718,1.3551 -5.80761,3.87173 -11.80881,5.42042 -9.67935,2.32305 -12.38958,2.32305 -22.06892,0 -6.0012,-1.54869 -11.22805,-3.87172 -11.61523,-5.22685 -0.58076,-1.54867 1.16153,-1.35511 5.42044,0.77433 3.48457,1.7423 11.22805,3.0974 17.03566,3.291 z"
             fill="#ff0000"
             id="path9306" />
        </g>
        <g
           id="Graphic_11">
          <path
             d="m 132.65481,308.23203 c -0.58076,0.96793 0.19359,1.93587 1.93587,1.93587 1.74228,0 2.51663,-0.96794 1.93587,-1.93587 -0.58076,-1.16153 -1.5487,-1.93587 -1.93587,-1.93587 -0.38718,0 -1.35511,0.77434 -1.93587,1.93587 z"
             fill="#cccccc"
             id="path9309" />
        </g>
        <g
           id="Graphic_10">
          <path
             d="m 131.68687,335.3342 c 0,0.96795 1.35511,1.9359 3.0974,1.9359 1.54869,0 2.32304,-0.96795 1.74228,-1.9359 -0.58076,-1.1615 -1.93587,-1.93586 -3.09739,-1.93586 -0.96794,0 -1.74229,0.77436 -1.74229,1.93586 z"
             fill="#cccccc"
             id="path9312" />
        </g>
        <g
           id="Graphic_9">
          <path
             d="m 131.68687,341.14182 c 0,1.16153 1.35511,1.93588 2.90381,1.93588 1.54869,0 2.9038,-0.3872 2.9038,-0.77435 0,-0.38718 -1.35511,-1.16153 -2.9038,-1.93587 -1.5487,-0.58078 -2.90381,-0.19358 -2.90381,0.77434 z"
             fill="#cccccc"
             id="path9315" />
        </g>
        <g
           id="Graphic_8">
          <path
             d="m 133.23557,348.30454 c 1.35511,0.58076 3.09739,0.38716 3.67815,-0.19358 0.77435,-0.58076 -0.38717,-1.16152 -2.51663,-0.96794 -2.12946,0 -2.71022,0.58078 -1.16152,1.16152 z"
             fill="#cccccc"
             id="path9318" />
        </g>
        <g
           id="Graphic_7">
          <path
             d="m 131.68687,356.6288 c 0,0.96792 0.96794,1.93586 1.93587,1.93586 1.16153,0 1.93587,-0.96794 1.93587,-1.93586 0,-1.16154 -0.77434,-1.9359 -1.93587,-1.9359 -0.96793,0 -1.93587,0.77436 -1.93587,1.9359 z"
             fill="#cccccc"
             id="path9321" />
        </g>
        <g
           id="Graphic_6">
          <path
             d="m 131.68687,364.37227 c 0,0.96793 0.96794,1.93587 2.12946,1.93587 0.96794,0 1.35511,-0.96794 0.77435,-1.93587 -0.58076,-1.16152 -1.5487,-1.93587 -2.12946,-1.93587 -0.38717,0 -0.77435,0.77435 -0.77435,1.93587 z"
             fill="#cccccc"
             id="path9324" />
        </g>
        <g
           id="Graphic_5">
          <path
             d="m 131.68687,372.11575 c 0,0.96795 1.35511,1.93585 3.0974,1.93585 1.54869,0 2.32304,-0.9679 1.74228,-1.93585 -0.58076,-1.16152 -1.93587,-1.93585 -3.09739,-1.93585 -0.96794,0 -1.74229,0.77433 -1.74229,1.93585 z"
             fill="#cccccc"
             id="path9327" />
        </g>
        <g
           id="Graphic_4">
          <path
             d="m 131.68687,377.92336 c 0,0.96794 0.96794,1.93587 2.12946,1.93587 0.96794,0 1.35511,-0.96793 0.77435,-1.93587 -0.58076,-1.16152 -1.5487,-1.93586 -2.12946,-1.93586 -0.38717,0 -0.77435,0.77434 -0.77435,1.93586 z"
             fill="#cccccc"
             id="path9330" />
        </g>
      </g>
    </g>
  </g>
  <circle
     style="fill:#3250b0;stroke-width:3;stroke-linecap:round;stroke-linejoin:round;stroke-miterlimit:3"
     id="hold-point"
     cx="59.322861"
     cy="285.25974"
     r="24.498096" />
</svg>

<?xml version="1.0" encoding="UTF-8" standalone="no"?>
<!DOCTYPE svg PUBLIC "-//W3C//DTD SVG 1.1//EN" "http://www.w3.org/Graphics/SVG/1.1/DTD/svg11.dtd">
<svg xmlns:dc="http://purl.org/dc/elements/1.1/" xmlns:xl="http://www.w3.org/1999/xlink" version="1.1" xmlns="http://www.w3.org/2000/svg" viewBox="94.5 63 175.5 337.5" width="175.5" height="337.5">
  <defs>
    <clipPath id="artboard_clip_path">
      <path d="M 94.5 63 L 270 63 L 270 400.5 L 94.5 400.5 Z"/>
    </clipPath>
  </defs>
  <metadata> Produced by OmniGraffle 7.7.1 
    <dc:date>2018-03-13 06:46:41 +0000</dc:date><dc:title>Traceable heraldic art http://heraldicart.org/credits.html</dc:title>
  </metadata>
  <g id="Sickle" fill-opacity="1" stroke-dasharray="none" stroke="none" stroke-opacity="1" fill="#ffff00">
    <title>Sickle</title>
    <g id="Sickle: Layer 2" >
      <title>Layer 2</title>
      <g id="Group_3">
        <g id="Graphic_18">
          <path d="M 140.39829 67.02258 C 115.81274 72.6366 97.42197 82.315955 99.35784 88.51074 C 99.74501 89.67226 108.26284 90.44661 121.23317 90.6402 C 145.04438 90.83378 153.7558 92.76966 173.30809 102.44901 C 199.63592 115.61293 210.4768 128.97043 217.63952 156.65338 C 222.2856 174.46338 221.70485 186.2722 214.9293 202.92068 C 200.60386 238.73428 179.69646 254.02766 144.6572 254.02766 L 128.58948 254.02766 L 128.2023 266.03005 C 128.00872 272.8056 127.42796 282.48495 126.8472 287.9054 C 126.46002 293.13224 125.49209 317.7178 124.71774 342.30335 L 123.55622 387.02195 L 128.00872 391.0873 C 133.42916 396.31413 142.14057 398.25 159.757 398.25 C 169.82352 398.25 174.85678 397.28206 178.9221 394.76543 C 184.14896 391.28087 184.34255 390.7001 183.37461 378.31054 C 182.79385 371.1478 181.43874 360.11335 180.27722 353.725 C 176.0183 329.91378 172.53374 297.58474 173.88885 296.6168 C 174.6632 296.03604 179.50287 294.29376 184.72972 293.13224 C 198.4744 289.64767 218.80104 277.0645 231.3842 264.28777 C 242.80583 252.47896 253.6467 232.92667 261.1966 210.0834 C 271.06954 180.46458 262.16454 127.03456 243.96735 106.90151 C 241.6443 104.19129 238.35333 99.93238 236.61105 97.41574 C 234.86876 95.0927 230.41626 90.83378 226.7381 88.31715 C 222.86637 85.80052 216.67158 81.54161 212.79984 79.02498 C 195.95777 67.60334 162.27362 62.1829 140.39829 67.02258 Z" fill="#cccccc"/>
        </g>
        <g id="Graphic_17">
          <path d="M 192.6668 74.1853 C 216.2844 81.54161 241.06355 103.80412 251.90442 127.22815 C 257.13127 138.4562 263.32606 167.88143 263.32606 181.23893 C 263.32606 184.91708 261.97095 193.43491 260.22867 200.21046 C 250.16214 239.8958 229.25474 266.41723 196.73212 281.12984 C 185.89124 285.96952 182.0195 287.32463 166.91971 290.22843 C 156.85319 292.3579 141.17264 291.19637 136.52655 288.09898 C 132.07405 285.19517 131.68687 283.64647 131.68687 271.4505 L 131.68687 257.8994 L 140.2047 259.06092 C 156.07884 261.38396 186.08483 250.73668 200.79745 237.95993 C 213.3806 226.92547 227.51246 188.78883 225.383 171.55958 C 222.4792 146.97403 212.60625 123.93717 200.60386 113.28988 C 181.05157 96.06063 146.59307 84.44541 119.87806 85.99411 C 105.16545 86.96204 104.58469 86.76846 107.87567 83.67106 C 112.13458 79.60574 131.10611 72.24943 143.3021 70.11997 C 155.3045 67.79693 178.72852 69.7328 192.6668 74.1853 Z" fill="#ff0000"/>
        </g>
        <g id="Graphic_16">
          <path d="M 146.98025 294.87452 C 150.6584 295.64887 156.46601 295.84246 159.5634 295.4553 C 164.2095 294.68094 164.98384 294.87452 162.6608 296.42322 C 158.40188 299.5206 143.88286 298.93985 137.49448 295.64887 C 130.71894 292.1643 129.94459 290.03485 136.13937 291.9707 C 138.46242 292.74506 143.3021 294.10017 146.98025 294.87452 Z" fill="#ff0000"/>
        </g>
        <g id="Graphic_15">
          <path d="M 143.88286 300.68213 C 147.94818 301.65007 154.14297 301.65007 158.59547 300.68213 C 165.95178 299.13344 166.14537 299.13344 167.1133 305.13464 C 167.69406 309.00638 167.1133 311.91018 165.17743 313.45888 C 160.33775 317.13703 148.72253 318.10497 139.43035 315.39475 C 130.91252 313.0717 130.71894 312.68453 130.13818 304.55387 C 129.55742 297.00398 129.94459 296.22963 133.04198 297.58474 C 134.97785 298.3591 139.81753 299.7142 143.88286 300.68213 Z" fill="#ff0000"/>
        </g>
        <g id="Graphic_14">
          <path d="M 149.1097 319.84725 C 154.33656 319.84725 160.72493 319.0729 163.43515 317.91138 C 166.14537 316.94344 168.46841 316.74986 168.46841 317.7178 C 168.46841 322.94464 143.68927 325.65486 134.59068 321.39595 C 128.2023 318.49214 128.2023 315.58834 134.78427 317.91138 C 137.49448 319.0729 143.88286 319.84725 149.1097 319.84725 Z" fill="#ff0000"/>
        </g>
        <g id="Graphic_13">
          <path d="M 148.14177 326.6228 C 153.5622 326.6228 160.53134 325.84845 164.0159 325.0741 L 170.0171 323.5254 L 171.37222 338.6252 C 172.14656 346.94944 173.88885 358.95183 175.43754 365.3402 C 179.1157 381.6015 179.1157 381.6015 169.04917 386.054 C 158.2083 390.8937 144.27003 389.92576 135.55861 383.73097 L 129.751 379.66564 L 129.751 351.59552 L 129.751 323.5254 L 134.2035 325.0741 C 136.52655 325.84845 142.91492 326.6228 148.14177 326.6228 Z" fill="#ff0000"/>
        </g>
        <g id="Graphic_12">
          <path d="M 154.72373 392.2488 C 161.49928 392.2488 168.08124 390.8937 172.14656 388.76424 C 176.79265 386.2476 178.34135 386.054 177.76059 387.9899 C 177.37341 389.345 171.95298 391.86163 165.95178 393.41032 C 156.27243 395.73337 153.5622 395.73337 143.88286 393.41032 C 137.88166 391.86163 132.65481 389.5386 132.26763 388.18347 C 131.68687 386.6348 133.42916 386.82836 137.68807 388.9578 C 141.17264 390.7001 148.91612 392.0552 154.72373 392.2488 Z" fill="#ff0000"/>
        </g>
        <g id="Graphic_11">
          <path d="M 132.65481 308.23203 C 132.07405 309.19996 132.8484 310.1679 134.59068 310.1679 C 136.33296 310.1679 137.10731 309.19996 136.52655 308.23203 C 135.94579 307.0705 134.97785 306.29616 134.59068 306.29616 C 134.2035 306.29616 133.23557 307.0705 132.65481 308.23203 Z" fill="#cccccc"/>
        </g>
        <g id="Graphic_10">
          <path d="M 131.68687 335.3342 C 131.68687 336.30215 133.04198 337.2701 134.78427 337.2701 C 136.33296 337.2701 137.10731 336.30215 136.52655 335.3342 C 135.94579 334.1727 134.59068 333.39834 133.42916 333.39834 C 132.46122 333.39834 131.68687 334.1727 131.68687 335.3342 Z" fill="#cccccc"/>
        </g>
        <g id="Graphic_9">
          <path d="M 131.68687 341.14182 C 131.68687 342.30335 133.04198 343.0777 134.59068 343.0777 C 136.13937 343.0777 137.49448 342.6905 137.49448 342.30335 C 137.49448 341.91617 136.13937 341.14182 134.59068 340.36748 C 133.04198 339.7867 131.68687 340.1739 131.68687 341.14182 Z" fill="#cccccc"/>
        </g>
        <g id="Graphic_8">
          <path d="M 133.23557 348.30454 C 134.59068 348.8853 136.33296 348.6917 136.91372 348.11096 C 137.68807 347.5302 136.52655 346.94944 134.39709 347.14302 C 132.26763 347.14302 131.68687 347.7238 133.23557 348.30454 Z" fill="#cccccc"/>
        </g>
        <g id="Graphic_7">
          <path d="M 131.68687 356.6288 C 131.68687 357.59672 132.65481 358.56466 133.62274 358.56466 C 134.78427 358.56466 135.55861 357.59672 135.55861 356.6288 C 135.55861 355.46726 134.78427 354.6929 133.62274 354.6929 C 132.65481 354.6929 131.68687 355.46726 131.68687 356.6288 Z" fill="#cccccc"/>
        </g>
        <g id="Graphic_6">
          <path d="M 131.68687 364.37227 C 131.68687 365.3402 132.65481 366.30814 133.81633 366.30814 C 134.78427 366.30814 135.17144 365.3402 134.59068 364.37227 C 134.00992 363.21075 133.04198 362.4364 132.46122 362.4364 C 132.07405 362.4364 131.68687 363.21075 131.68687 364.37227 Z" fill="#cccccc"/>
        </g>
        <g id="Graphic_5">
          <path d="M 131.68687 372.11575 C 131.68687 373.0837 133.04198 374.0516 134.78427 374.0516 C 136.33296 374.0516 137.10731 373.0837 136.52655 372.11575 C 135.94579 370.95423 134.59068 370.1799 133.42916 370.1799 C 132.46122 370.1799 131.68687 370.95423 131.68687 372.11575 Z" fill="#cccccc"/>
        </g>
        <g id="Graphic_4">
          <path d="M 131.68687 377.92336 C 131.68687 378.8913 132.65481 379.85923 133.81633 379.85923 C 134.78427 379.85923 135.17144 378.8913 134.59068 377.92336 C 134.00992 376.76184 133.04198 375.9875 132.46122 375.9875 C 132.07405 375.9875 131.68687 376.76184 131.68687 377.92336 Z" fill="#cccccc"/>
        </g>
      </g>
    </g>
  </g>
</svg>
